X:1
T:Merch Megan
C:Traditional
M:3/4
L:1/4
Q:1/4=132
K:D
A/2G/2|F#DD|B2A|GF#E/2D/2|C#AA/2G/2|F#DD|B2A|GF#E|D3|]
